assets/svg/phone.svg

<svg width="16" height="16" viewBox="0 0 16 16" fill="none" xmlns="http://www.w3.org/2000/svg">
<path fill-rule="evenodd" clip-rule="evenodd" d="M1.885 0.511002C2.05997 0.336291 2.27008 0.20076 2.50139 0.113392C2.73271 0.0260236 2.97995 -0.0111874 3.22674 0.00422482C3.47352 0.019637 3.71421 0.0873205 3.93286 0.20279C4.15151 0.318259 4.34312 0.478878 4.495 0.674002L6.29 2.98C6.619 3.403 6.735 3.954 6.605 4.474L6.058 6.664C6.02972 6.77743 6.03124 6.89625 6.06243 7.00891C6.09362 7.12158 6.15341 7.22426 6.236 7.307L8.693 9.764C8.77583 9.84676 8.87869 9.90664 8.99155 9.93784C9.10441 9.96903 9.22342 9.97047 9.337 9.942L11.526 9.395C11.7826 9.33084 12.0505 9.32586 12.3093 9.38043C12.5681 9.435 12.8111 9.5477 13.02 9.71L15.326 11.504C16.155 12.149 16.231 13.374 15.489 14.115L14.455 15.149C13.715 15.889 12.609 16.214 11.578 15.851C8.93918 14.9225 6.54327 13.4118 4.568 11.431C2.58729 9.45602 1.07661 7.06046 0.147998 4.422C-0.214002 3.392 0.110998 2.285 0.850998 1.545L1.885 0.511002Z" fill="#2494CE"/>
</svg>

<svg xmlns="http://www.w3.org/2000/svg" width="16" height="16" fill="currentColor" class="bi bi-telephone-fill" viewBox="0 0 16 16">
  <path fill-rule="evenodd" d="M1.885.511a1.745 1.745 0 0 1 2.61.163L6.29 2.98c.329.423.445.974.315 1.494l-.547 2.19a.678.678 0 0 0 .178.643l2.457 2.457a.678.678 0 0 0 .644.178l2.189-.547a1.745 1.745 0 0 1 1.494.315l2.306 1.794c.829.645.905 1.87.163 2.611l-1.034 1.034c-.74.74-1.846 1.065-2.877.702a18.634 18.634 0 0 1-7.01-4.42 18.634 18.634 0 0 1-4.42-7.009c-.362-1.03-.037-2.137.703-2.877L1.885.511z"/>
</svg>
